X:1
T:Title
%%score ( 1 2 ) { 3 | 4 }
L:1/8
Q:1/4=130
M:6/4
K:Eb
V:1 treble nm="Grand Piano, Soprano"
V:2 treble 
V:3 bass nm="Choir Pad, Bremen, 886.886"
V:4 bass 
V:1
 [B,E]2 [B,E]4 [B,E]2 G2 F2 | [B,E]2 [DF]4 [DF]2 [FA]4 | [DF]2 [EG]4 [EG]2 [GB]2 [FA]2 | %3
w: By~Thomas~Hastings~(1784\-1872) * * * *|||
 [EG]2 [Ec]4 [EF]2 [DF]4 | [DF]2 [EG]4 [Gc]2 [FB]4 | [F=A]2 [FB]4- [FB]4- [FB]3/2 z/ | %6
w: |||
 [EG][FA] [GB]4 [GB]2 [Ge]2 [Bd]2 | [Ac]2 [GB]4 [FB]2 [GB]4 | [EG][FA] [GB]4 [GB]2 [Ge]2 [Bd]2 | %9
w: |||
 [Ac]2 [GB]4 [FB]2 [GB]4 | E2 [Ec]4 [Ec]2 B2 A2 | [DF]2 E4- E6- | E6 z6 |] %13
w: ||||
V:2
 z6 z2 B,4 | x12 | x12 | x12 | x12 | x12 | x12 | x12 | x12 | x12 | z6 z2 D4 | x12 | x12 |] %13
V:3
 G,2 G,4 G,2 B,2 A,2 | G,2 B,4 B,2 B,4 | B,2 B,4 B,2 B,4 | B,2 A,4[K:treble] C2 C4 | %4
 B,2 B,4 E2 D4 | C2 D4- D4- D3/2 z/ | E2 E4 E2 B,4 | E2 E4 D2 E4 | E2 E4 E2 B,4 | E2 E4 D2 E4 | %10
 G,2 A,4 A,2 F,4 | A,2 G,4- G,6- | G,6 z6 |] %13
V:4
 E,2 E,4 E,2 E,4 | E,2 B,,4 B,,2 B,,4 | B,,2 E,4 E,2 E,4 | E,2 A,,4 =A,,2 B,,4 | B,,2 E,4 C,2 F,4 | %5
 F,2 B,,4- B,,4- B,,3/2 z/ | E,2 E,4 E,2 E,4 | E,2 E,4 B,,2 E,4 | E,2 E,4 E,2 E,4 | %9
 E,2 E,4 B,,2 E,4 | E,2 A,,4 A,,2 B,,4 | B,,2 E,4- E,6- | E,6 z6 |] %13

